X:34
T: ES WOLLT EIN MAEDEL WOHL FRUEH AUFSTEHN
N: Z0035
O: Europa, Mitteleuropa, Deutschland, Thueringen
R: Sagen - Lied, Romanze
M: 2/4
L: 1/16
K: G
D4 | G2G2GAdG | A2F2D2
D2 | G2G2GABA | A4z2
GA | B2G2G2B2 | c2B2A4
F2A2Dc2c | B2A2G2
D2 | B2B2A2A2 | G4

